logos/aws-keyspaces.svg

<?xml version="1.0" encoding="UTF-8"?>
<svg width="256px" height="256px" viewBox="0 0 256 256" version="1.1" xmlns="http://www.w3.org/2000/svg" xmlns:xlink="http://www.w3.org/1999/xlink" preserveAspectRatio="xMidYMid">
    <title>AWS Keyspaces</title>
    <defs>
        <linearGradient x1="0%" y1="100%" x2="100%" y2="0%" id="linearGradient-1">
            <stop stop-color="#2E27AD" offset="0%"></stop>
            <stop stop-color="#527FFF" offset="100%"></stop>
        </linearGradient>
    </defs>
    <g>
        <rect fill="url(#linearGradient-1)" x="0" y="0" width="256" height="256"></rect>
        <path d="M217.6768,92.864 L207.3696,95.2832 L215.4368,104.3328 C214.8352,105.5296 214.0288,106.4992 213.0176,107.2448 C212,107.9936 210.8672,108.4544 209.6096,108.6336 L203.3408,97.792 L197.0688,108.6336 C195.8144,108.4544 194.6784,107.9936 193.6608,107.2448 C192.6464,106.4992 191.84,105.5296 191.2416,104.3328 L199.3088,95.2832 L189.0048,92.864 C188.8832,92.2656 188.8224,91.7888 188.8224,91.4304 C188.8224,89.3984 189.6,87.6064 191.1552,86.0544 L200.8288,90.8032 L199.5776,79.2448 C200.7712,78.7072 202.0224,78.4384 203.3408,78.4384 C204.7136,78.4384 205.968,78.7072 207.1008,79.2448 L205.8496,90.8032 L215.5232,86.0544 C217.0784,87.6064 217.856,89.3984 217.856,91.4304 C217.856,91.7888 217.7952,92.2656 217.6768,92.864 L217.6768,92.864 Z M169.376,167.2896 C174.1856,167.2896 179.5232,166.3296 185.3824,164.4032 L185.3824,170.5696 C179.9616,173.0176 174.496,174.2432 168.9824,174.2432 C158.8352,174.2432 151.1424,171.3344 145.8912,165.52 C140.6464,159.7024 138.0192,151.152 138.0192,139.8688 C138.0192,128.672 140.688,120.1248 146.0224,114.2176 C151.3568,108.3168 159.0976,105.3632 169.2448,105.3632 C174.6688,105.3632 179.7856,106.4128 184.5952,108.512 L184.5952,114.6784 C179.7856,113.104 174.8,112.3168 169.6384,112.3168 C161.3312,112.3168 155.3184,114.4384 151.6032,118.6784 C147.8816,122.9248 146.0224,129.7248 146.0224,139.0816 L146.0224,140.656 C146.0224,149.7536 147.904,156.464 151.6672,160.7968 C155.4272,165.1264 161.3312,167.2896 169.376,167.2896 L169.376,167.2896 Z M99.2,41.6 C133.6544,41.6 156.8,51.5296 156.8,60.8 C156.8,70.0704 133.6544,80 99.2,80 C65.1456,80 44.8,70.2368 44.8,60.8 C44.8,51.3632 65.1456,41.6 99.2,41.6 L99.2,41.6 Z M156.8,198.4 C156.8,207.6704 133.6544,217.6 99.2,217.6 C72.4576,217.6 44.8,210.4192 44.8,198.4 L44.8,166.0256 C54.3136,174.208 73.84,179.2 99.2,179.2 C112.2944,179.2 124.7392,177.808 135.1808,175.1808 L133.616,168.9728 C123.68,171.4752 111.776,172.8 99.2,172.8 C72.4576,172.8 44.8,165.664 44.8,153.7184 L44.8,120.96 C54.4032,129.2288 74.1376,134.4 99.2,134.4 C112.2816,134.4 124.7264,132.9952 135.1872,130.336 L133.6096,124.1344 C123.6576,126.6656 111.7568,128 99.2,128 C65.1456,128 44.8,118.2368 44.8,108.8 L44.8,72.96 C54.4032,81.2288 74.1376,86.4 99.2,86.4 C122.4256,86.4 145.8496,81.7024 156.8,72.6272 L156.8,83.2 L163.2,83.2 L163.2,60.8 C163.2,43.9936 131.0016,35.2 99.2,35.2 C63.4016,35.2 38.4,45.728 38.4,60.8 L38.4,198.4 C38.4,213.712 62.832,224 99.2,224 C131.0016,224 163.2,215.2064 163.2,198.4 L163.2,192 L156.8,192 L156.8,198.4 Z" fill="#FFFFFF"></path>
    </g>
</svg>

<svg preserveAspectRatio="xMidYMid" viewBox="0 0 256 256" xmlns="http://www.w3.org/2000/svg">
  <defs>
    <linearGradient id="aws-keyspaces_svg__a" x1="0%" x2="100%" y1="100%" y2="0%">
      <stop offset="0%" stop-color="#2E27AD"/>
      <stop offset="100%" stop-color="#527FFF"/>
    </linearGradient>
  </defs>
  <path fill="url(#aws-keyspaces_svg__a)" d="M0 0h256v256H0z"/>
  <path fill="#FFF" d="m217.677 92.864-10.307 2.42 8.067 9.049c-.602 1.197-1.408 2.166-2.42 2.912a7.42 7.42 0 0 1-3.407 1.389l-6.27-10.842-6.271 10.842a7.434 7.434 0 0 1-3.408-1.39c-1.015-.745-1.821-1.714-2.42-2.911l8.068-9.05-10.304-2.419c-.122-.598-.183-1.075-.183-1.434 0-2.032.778-3.824 2.333-5.376l9.674 4.75-1.251-11.56a9.05 9.05 0 0 1 3.763-.806c1.373 0 2.627.27 3.76.807l-1.251 11.558 9.673-4.749c1.555 1.552 2.333 3.344 2.333 5.376 0 .359-.06.836-.18 1.434Zm-48.301 74.426c4.81 0 10.147-.96 16.006-2.887v6.167c-5.42 2.448-10.886 3.673-16.4 3.673-10.147 0-17.84-2.909-23.09-8.723-5.246-5.818-7.873-14.368-7.873-25.651 0-11.197 2.669-19.744 8.003-25.651 5.335-5.901 13.076-8.855 23.223-8.855 5.424 0 10.54 1.05 15.35 3.149v6.166c-4.81-1.574-9.795-2.361-14.957-2.361-8.307 0-14.32 2.121-18.035 6.361-3.721 4.247-5.58 11.047-5.58 20.404v1.574c0 9.098 1.881 15.808 5.644 20.14 3.76 4.33 9.664 6.494 17.709 6.494ZM99.2 41.6c34.454 0 57.6 9.93 57.6 19.2S133.654 80 99.2 80c-34.054 0-54.4-9.763-54.4-19.2s20.346-19.2 54.4-19.2Zm57.6 156.8c0 9.27-23.146 19.2-57.6 19.2-26.742 0-54.4-7.18-54.4-19.2v-32.374c9.514 8.182 29.04 13.174 54.4 13.174 13.094 0 25.54-1.392 35.98-4.02l-1.564-6.207c-9.936 2.502-21.84 3.827-34.416 3.827-26.742 0-54.4-7.136-54.4-19.082V120.96c9.603 8.269 29.338 13.44 54.4 13.44 13.082 0 25.526-1.405 35.987-4.064l-1.577-6.202C123.658 126.666 111.757 128 99.2 128c-34.054 0-54.4-9.763-54.4-19.2V72.96c9.603 8.269 29.338 13.44 54.4 13.44 23.226 0 46.65-4.698 57.6-13.773V83.2h6.4V60.8c0-16.806-32.198-25.6-64-25.6-35.798 0-60.8 10.528-60.8 25.6v137.6c0 15.312 24.432 25.6 60.8 25.6 31.802 0 64-8.794 64-25.6V192h-6.4v6.4Z"/>
</svg>
